svgs/regular/gears.svg

<svg xmlns="http://www.w3.org/2000/svg" viewBox="0 0 640 512"><!--! Font Awesome Pro 6.0.0-alpha3 by @fontawesome - https://fontawesome.com License - https://fontawesome.com/license (Commercial License) --><path d="M160 144c-17.67 0-32 14.33-32 32c0 17.67 14.33 32 32 32s32-14.33 32-32C192 158.3 177.7 144 160 144zM307.1 198.8L290.5 189.2c.5-4.469 .7344-8.781 .7344-12.97c0-4.375-.25-8.781-.75-13.31l16.72-9.656C317.6 147.1 322.5 134.5 318.7 123.2C311.5 101.5 300.3 81.94 285.1 64.88C277.4 56.16 263.4 54.06 253.4 59.94L236.1 69.91c-7-5.031-14.42-9.312-22.23-12.84V37.19c0-12-8.422-22.53-20.12-25.03c-22.5-4.75-44.86-4.75-67.52 0c-11.62 2.5-20.06 13.03-20.06 25.03v19.88C98.34 60.59 90.91 64.88 83.92 69.91L66.7 59.97c-10.19-5.938-24.17-3.75-31.89 4.969c-15.06 17-26.36 36.59-33.53 58.22C-2.5 134.5 2.359 147.1 12.86 153.2l16.69 9.656c-.5 4.531-.75 8.938-.75 13.31c0 4.188 .2344 8.5 .7344 12.97L12.91 198.8C2.359 204.8-2.531 217.4 1.266 228.8c7.203 21.66 18.48 41.25 33.47 58.13c7.688 8.844 21.83 10.94 31.91 5.156l16.98-9.812c7.047 5.094 14.58 9.438 22.52 13.03v19.5c0 12 8.438 22.53 20.14 25.03C137.5 342.2 148.9 343.4 160 343.4s22.47-1.188 33.8-3.562c11.62-2.5 20.05-13.03 20.05-25.03v-19.5c7.938-3.594 15.47-7.938 22.52-13.03l16.94 9.75C263.5 297.1 277.5 295.8 285.2 287.1c15.08-17 26.36-36.59 33.55-58.22C322.5 217.5 317.7 204.8 307.1 198.8zM248 176c0 11.08-2.273 21.57-6.01 31.34l34.54 19.94c-3.719 8.5-8.344 16.53-13.84 24L227.1 231.2c-13.36 16.41-32.3 27.89-54.14 31.36v39.99c-9.281 1.125-18.41 1.125-27.69 0V262.6c-21.84-3.473-40.78-14.95-54.14-31.36L57.31 251.3c-5.469-7.469-10.09-15.5-13.84-24l34.54-19.94C74.27 197.6 72 187.1 72 176s2.273-21.57 6.01-31.34l-34.54-19.94c3.719-8.5 8.344-16.53 13.84-24l34.71 20.04c13.36-16.41 32.3-27.89 54.14-31.36V49.41c9.312-1.125 18.44-1.125 27.69 0v39.99c21.84 3.475 40.79 14.95 54.15 31.37l34.73-20.04c5.469 7.5 10.09 15.53 13.81 24l-34.54 19.94C245.7 154.4 248 164.9 248 176zM463.9 320c-17.67 0-32 14.33-32 32s14.33 32 32 32c17.67 0 32-14.33 32-32S481.6 320 463.9 320zM627.8 318.3c-2.5-11.62-13.03-20.11-25.03-20.11H582.9c-3.531-7.797-7.812-15.25-12.84-22.23l9.969-17.27c5.938-10.19 3.711-24.12-5.008-31.84c-17-15.06-36.59-26.36-58.22-33.53c-11.34-3.781-23.98 1.07-30.07 11.57l-9.641 16.69c-4.531-.5-8.945-.7393-13.32-.7393c-4.188 0-8.492 .2314-12.96 .7314L441.2 204.9c-6.031-10.55-18.66-15.38-30.04-11.59c-21.66 7.203-41.34 18.53-58.21 33.52c-8.844 7.688-10.84 21.78-5.062 31.86l9.812 16.98c-5.094 7.047-9.445 14.59-13.04 22.52h-19.5c-12 0-22.52 8.43-25.02 20.13c-2.375 11.25-3.57 22.59-3.57 33.72s1.188 22.41 3.562 33.74c2.5 11.62 13.03 20.1 25.03 20.1h19.5c3.594 7.938 7.945 15.48 13.04 22.52l-9.797 16.98c-5.938 10.2-3.688 24.17 5 31.81c17 15.08 36.6 26.37 58.23 33.55c11.38 3.797 24.02-1.039 30.05-11.55l9.641-16.7c4.469 .5 8.773 .7363 12.96 .7363c4.375 0 8.789-.2598 13.32-.7598l9.656 16.73c6.094 10.47 18.71 15.31 30.02 11.55c21.66-7.188 41.19-18.44 58.25-33.55c8.719-7.766 10.88-21.81 5.008-31.83l-9.969-17.27c5.031-7 9.312-14.43 12.84-22.24h19.87c12 0 22.52-8.421 25.02-20.12C632.6 363.2 632.6 340.9 627.8 318.3zM590.6 365.8h-39.99c-3.475 21.84-14.95 40.79-31.37 54.14l20.04 34.73c-7.5 5.469-15.53 10.09-24 13.81l-19.94-34.54C485.6 437.7 475.1 440 464 440s-21.57-2.273-31.34-6.01l-19.94 34.54c-8.5-3.719-16.53-8.344-24-13.84l20.04-34.71c-16.41-13.36-27.89-32.3-31.36-54.14h-39.99c-1.125-9.281-1.125-18.41 0-27.69h39.99c3.473-21.84 14.95-40.78 31.36-54.14l-20.04-34.71c7.469-5.469 15.5-10.09 24-13.84l19.94 34.54C442.4 266.3 452.9 264 464 264s21.57 2.273 31.34 6.01l19.94-34.54c8.5 3.719 16.53 8.344 24 13.84l-20.04 34.71c16.41 13.36 27.89 32.3 31.36 54.14h39.99C591.7 347.5 591.7 356.6 590.6 365.8z"/></svg>

<svg xmlns="http://www.w3.org/2000/svg" viewBox="0 0 640 512"><!-- Font Awesome Pro 6.0.0-alpha2 by @fontawesome - https://fontawesome.com License - https://fontawesome.com/license (Commercial License) --><path d="M160.013 144C142.339 144 128.013 158.326 128.013 176C128.013 193.672 142.339 208 160.013 208S192.013 193.672 192.013 176C192.013 158.326 177.686 144 160.013 144ZM307.153 198.781L290.481 189.156C290.981 184.688 291.216 180.375 291.216 176.188C291.216 171.812 290.966 167.406 290.466 162.875L307.184 153.219C317.653 147.125 322.513 134.5 318.747 123.188C311.559 101.531 300.263 81.938 285.153 64.875C277.388 56.156 263.388 54.062 253.372 59.938L236.091 69.906C229.091 64.875 221.669 60.594 213.856 57.062V37.188C213.856 25.188 205.434 14.656 193.731 12.156C171.231 7.406 148.872 7.406 126.216 12.156C114.591 14.656 106.153 25.188 106.153 37.188V57.063C98.356 60.594 90.919 64.875 83.934 69.906L66.716 59.969C56.528 54.031 42.544 56.219 34.825 64.937C19.763 81.937 8.466 101.531 1.294 123.156C-2.487 134.5 2.372 147.125 12.872 153.219L29.559 162.875C29.059 167.406 28.809 171.812 28.809 176.187C28.809 180.375 29.044 184.687 29.544 189.156L12.919 198.75C2.372 204.781 -2.519 217.438 1.278 228.812C8.481 250.469 19.763 270.062 34.747 286.937C42.434 295.781 56.575 297.875 66.653 292.094L83.638 282.281C90.684 287.375 98.216 291.719 106.153 295.312V314.812C106.153 326.812 114.591 337.344 126.294 339.844C137.544 342.219 148.888 343.406 160.013 343.406S182.481 342.219 193.809 339.844C205.434 337.344 213.856 326.812 213.856 314.812V295.312C221.794 291.719 229.325 287.375 236.372 282.281L253.309 292.031C263.513 297.969 277.544 295.75 285.184 287.062C300.263 270.062 311.544 250.469 318.731 228.844C322.528 217.469 317.669 204.812 307.153 198.781ZM248.013 176C248.013 187.078 245.739 197.574 242.003 207.338L276.544 227.281C272.825 235.781 268.2 243.813 262.7 251.281L227.995 231.246C214.638 247.66 195.692 259.133 173.856 262.605V302.594C164.575 303.719 155.45 303.719 146.169 302.594V262.605C124.333 259.133 105.388 247.66 92.03 231.246L57.325 251.281C51.856 243.813 47.231 235.781 43.481 227.281L78.022 207.338C74.286 197.574 72.013 187.078 72.013 176S74.286 154.426 78.022 144.662L43.481 124.719C47.2 116.219 51.825 108.187 57.325 100.719L92.03 120.754C105.389 104.34 124.333 92.867 146.169 89.395V49.406C155.481 48.281 164.606 48.281 173.856 49.406V89.395C195.696 92.869 214.645 104.342 228.003 120.762L262.731 100.719C268.2 108.219 272.825 116.25 276.544 124.719L242.003 144.662C245.739 154.426 248.013 164.922 248.013 176ZM464.013 320.006C446.341 320.006 432.013 334.332 432.013 352.006S446.341 384.006 464.013 384.006C481.686 384.006 496.013 369.68 496.013 352.006S481.686 320.006 464.013 320.006ZM627.856 318.209C625.356 306.584 614.825 298.146 602.825 298.146H582.95C579.419 290.35 575.138 282.912 570.106 275.928L580.044 258.709C585.981 248.521 583.794 234.537 575.075 226.818C558.075 211.756 538.481 200.459 516.856 193.287C505.513 189.506 492.888 194.365 486.794 204.865L477.138 221.553C472.606 221.053 468.2 220.803 463.825 220.803C459.638 220.803 455.325 221.037 450.856 221.537L441.263 204.912C435.231 194.365 422.575 189.475 411.2 193.271C389.544 200.475 369.95 211.756 353.075 226.74C344.231 234.428 342.138 248.568 347.919 258.646L357.731 275.631C352.638 282.678 348.294 290.209 344.7 298.146H325.2C313.2 298.146 302.669 306.584 300.169 318.287C297.794 329.537 296.606 340.881 296.606 352.006S297.794 374.475 300.169 385.803C302.669 397.428 313.2 405.848 325.2 405.848H344.7C348.294 413.785 352.638 421.316 357.731 428.363L347.981 445.301C342.044 455.504 344.263 469.535 352.95 477.176C369.95 492.254 389.544 503.535 411.169 510.723C422.544 514.52 435.2 509.66 441.231 499.145L450.856 482.473C455.325 482.973 459.638 483.207 463.825 483.207C468.2 483.207 472.606 482.957 477.138 482.457L486.794 499.176C492.888 509.645 505.513 514.504 516.825 510.738C538.481 503.551 558.075 492.254 575.138 477.145C583.856 469.379 585.95 455.379 580.075 445.363L570.106 428.082C575.138 421.082 579.419 413.66 582.95 405.848H602.825C614.825 405.848 625.356 397.428 627.856 385.725C632.606 363.225 632.606 340.865 627.856 318.209ZM590.606 365.85H550.618C547.143 387.689 535.671 406.637 519.251 419.994L539.294 454.723C531.794 460.191 523.763 464.816 515.294 468.535L495.35 433.994C485.587 437.73 475.091 440.004 464.013 440.004S442.438 437.73 432.675 433.994L412.731 468.535C404.231 464.816 396.2 460.191 388.731 454.691L408.766 419.986C392.352 406.629 380.88 387.686 377.407 365.85H337.419C336.294 356.568 336.294 347.443 337.419 338.162H377.407C380.88 316.326 392.352 297.381 408.766 284.023L388.731 249.318C396.2 243.85 404.231 239.225 412.731 235.475L432.675 270.016C442.438 266.279 452.934 264.006 464.013 264.006S485.587 266.279 495.35 270.016L515.294 235.475C523.794 239.193 531.825 243.818 539.294 249.318L519.259 284.023C535.673 297.383 547.145 316.326 550.618 338.162H590.606C591.731 347.475 591.731 356.6 590.606 365.85Z"/></svg>
